packages/icons/svg/Instruction_Service_PurchaseHelp_Truck_24px.svg

<svg xmlns="http://www.w3.org/2000/svg" viewBox="0 0 24 24"><path d="M21 20H3a1 1 0 000 2h18a1 1 0 000-2zM21 8h-.72l-.81-3.24a1 1 0 00-1-.76H16V3a1 1 0 00-1-1H3a1 1 0 00-1 1v12a1 1 0 001 1h2.68a3 3 0 005.64 0h2.36a3 3 0 005.64 0H21a1 1 0 001-1V9a1 1 0 00-1-1zM8.5 16a1 1 0 111-1 1 1 0 01-1 1zm8 0a1 1 0 111-1 1 1 0 01-1 1zm3.5-2h-.68a3 3 0 00-5.64 0h-2.36a3 3 0 00-5.64 0H4V4h10v5a1 1 0 002 0V6h1.72l.4 1.62.6 2.38H20z"/></svg>

<svg xmlns="http://www.w3.org/2000/svg" viewBox="0 0 24 24"><defs></defs><g id="Icon"><path  d="M21,20H3a1,1,0,0,0,0,2H21a1,1,0,0,0,0-2Z"/><path  d="M21,8h-.72l-.81-3.24a1,1,0,0,0-1-.76H16V3a1,1,0,0,0-1-1H3A1,1,0,0,0,2,3V15a1,1,0,0,0,1,1H5.68a3,3,0,0,0,5.64,0h2.36a3,3,0,0,0,5.64,0H21a1,1,0,0,0,1-1V9A1,1,0,0,0,21,8ZM8.5,16a1,1,0,1,1,1-1A1,1,0,0,1,8.5,16Zm8,0a1,1,0,1,1,1-1A1,1,0,0,1,16.5,16ZM20,14h-.68a3,3,0,0,0-5.64,0H11.32a3,3,0,0,0-5.64,0H4V4H14V9a1,1,0,0,0,2,0V6h1.72l.4,1.62.6,2.38H20Z"/></g></svg>
